svg/podcast.svg

<svg xmlns="http://www.w3.org/2000/svg" viewBox="0 0 24 24"><path d="M17 18.25v3.25H7v-3.25c0-1.38 2.24-2.5 5-2.5s5 1.12 5 2.5M12 5.5a6.5 6.5 0 0 1 6.5 6.5c0 1.25-.35 2.42-.96 3.41L16 14.04c.32-.61.5-1.31.5-2.04 0-2.5-2-4.5-4.5-4.5s-4.5 2-4.5 4.5c0 .73.18 1.43.5 2.04l-1.54 1.37c-.61-.99-.96-2.16-.96-3.41A6.5 6.5 0 0 1 12 5.5m0-4A10.5 10.5 0 0 1 22.5 12c0 2.28-.73 4.39-1.96 6.11l-1.5-1.35c.92-1.36 1.46-3 1.46-4.76A8.5 8.5 0 0 0 12 3.5 8.5 8.5 0 0 0 3.5 12c0 1.76.54 3.4 1.46 4.76l-1.5 1.35A10.47 10.47 0 0 1 1.5 12 10.5 10.5 0 0 1 12 1.5m0 8a2.5 2.5 0 0 1 2.5 2.5 2.5 2.5 0 0 1-2.5 2.5A2.5 2.5 0 0 1 9.5 12 2.5 2.5 0 0 1 12 9.5"/></svg>

<?xml version="1.0" encoding="UTF-8"?><!DOCTYPE svg PUBLIC "-//W3C//DTD SVG 1.1//EN" "http://www.w3.org/Graphics/SVG/1.1/DTD/svg11.dtd"><svg xmlns="http://www.w3.org/2000/svg" xmlns:xlink="http://www.w3.org/1999/xlink" version="1.1" id="mdi-podcast" width="24" height="24" viewBox="0 0 24 24"><path d="M17,18.25V21.5H7V18.25C7,16.87 9.24,15.75 12,15.75C14.76,15.75 17,16.87 17,18.25M12,5.5A6.5,6.5 0 0,1 18.5,12C18.5,13.25 18.15,14.42 17.54,15.41L16,14.04C16.32,13.43 16.5,12.73 16.5,12C16.5,9.5 14.5,7.5 12,7.5C9.5,7.5 7.5,9.5 7.5,12C7.5,12.73 7.68,13.43 8,14.04L6.46,15.41C5.85,14.42 5.5,13.25 5.5,12A6.5,6.5 0 0,1 12,5.5M12,1.5A10.5,10.5 0 0,1 22.5,12C22.5,14.28 21.77,16.39 20.54,18.11L19.04,16.76C19.96,15.4 20.5,13.76 20.5,12A8.5,8.5 0 0,0 12,3.5A8.5,8.5 0 0,0 3.5,12C3.5,13.76 4.04,15.4 4.96,16.76L3.46,18.11C2.23,16.39 1.5,14.28 1.5,12A10.5,10.5 0 0,1 12,1.5M12,9.5A2.5,2.5 0 0,1 14.5,12A2.5,2.5 0 0,1 12,14.5A2.5,2.5 0 0,1 9.5,12A2.5,2.5 0 0,1 12,9.5Z" /></svg>
